X:468
T: Ein Jngling wollte wandern (5.64), S. 105
N: P0738
O: Lothringen
S: MERKELBACH-PINCK, Angelika: Verklingende Weisen, Bd 5, Kassel 1962]
R: Liebe, Abschied, Tod]
M: 3/4
L: 1/16
K: C
C2D2 | E4D4G3G | F4D4
D2E2 | F4G4D4 | E8
G2G2 | c4B4A4 | G2E2G4
E2G2 | G4F4G4 | E8
G2G2 | c4B4A4 | G2E2G4
E2G2 | G4F4G4 | E8

